src/assets/filled/Location.svg

<svg width="24" height="24" viewBox="0 0 24 24"  xmlns="http://www.w3.org/2000/svg">
<path d="M20.6201 8.45C19.5701 3.83 15.5401 1.75 12.0001 1.75C12.0001 1.75 12.0001 1.75 11.9901 1.75C8.4601 1.75 4.4201 3.82 3.3701 8.44C2.2001 13.6 5.3601 17.97 8.2201 20.72C9.2801 21.74 10.6401 22.25 12.0001 22.25C13.3601 22.25 14.7201 21.74 15.7701 20.72C18.6301 17.97 21.7901 13.61 20.6201 8.45ZM12.0001 13.46C10.2601 13.46 8.8501 12.05 8.8501 10.31C8.8501 8.57 10.2601 7.16 12.0001 7.16C13.7401 7.16 15.1501 8.57 15.1501 10.31C15.1501 12.05 13.7401 13.46 12.0001 13.46Z" />
</svg>

<?xml version="1.0" encoding="UTF-8"?>
<svg width="24" height="24" viewBox="0 0 24 24" xmlns="http://www.w3.org/2000/svg">
 <path d="m20.62 8.45c-1.05-4.62-5.08-6.7-8.62-6.7h-0.01c-3.53 0-7.57 2.07-8.62 6.69-1.17 5.16 1.99 9.53 4.85 12.28 1.06 1.02 2.42 1.53 3.78 1.53s2.72-0.51 3.77-1.53c2.86-2.75 6.02-7.11 4.85-12.27zm-8.62 5.01c-1.74 0-3.15-1.41-3.15-3.15s1.41-3.15 3.15-3.15 3.15 1.41 3.15 3.15-1.41 3.15-3.15 3.15z"/>
</svg>
